X:21
T:Miller of Dron
M:6/8
L:1/8
K:F
C| F>GF       cAd|cAf cAF|B>cB AGF|G>AF EDC|F>GF     cAd     |cAf cAd|cAf cAc|f>gf/e/ f2:|
c|(f/e/f/g/a) def|gaf edc|def  cAF|GAF  EDC|a(f/g/a) g(e/f/g)|fcd cBA|bag agf|cfe     f2:|

% @@@@@@@@@@@@@@@@@@@@@@@@@@@@@@@@@@

%% 22. ===============================================================================

%  @THE@
% ^Kingdom of^
%  @FIFE.@
%
% *THREE hands round with the first Woman, the same with the 2d Man.  *Lead up, cast off,
% and sett, lead down one pair, cast up, and sett.  *SETT cross Partners.  *Lead out at
% both sides.

% @@@@@@@@@@@@@@@@@@@@@@@@@@@@@@@@@@

